!!!ONB: MCCC : IJH0440_03 : Extracted Monophonic Melody
!!!COM: Haydn, Joseph
!!!OPR: String Quartet in E major
!!!OMV: 3
!!!SCT: Hob.III:59 ; Op.54 No.3
!!!ODT: 1788///
**kern
*thru
*k[f#c#g#d#]
*E:
*clefG
*M3/4
16dd#
8.ee
=1
16gg#
8.ee
16aa
8.ff#
16bb
8.gg#
=2
4ee
4eee
4eee
=3
4.eee
8ddd#
8ccc#
8bb
=4
4aa
4r
16ee#
8.ff#
=5
16gg#
8.ff#
16aa
8.gg#
16bb
8.aa
=6
2ccc#
4a
=7
2ccc#
4dd#
=8
4ee
4r
16A#
8.B
=9
16A#
8.B
16c#
8.B
4a
=10
4g#
4e
16a#
8.b
=11
16a#
8.b
16cc#
8.b
4aa
=12
4gg#
4ee
16ff##
8.gg#
=13
4ccc#
4ccc#
4ccc#
=14
16bb#
8.ccc#
16ddd#
8.ccc#
16eee
8.ccc#
=15
4.ggg#
8fff#
8eee
8ddd#
=16
4ccc#
16bb#
8.ccc#
16ddd#
8.ccc#
=17
4.fff#
8eee
8ddd#
8ccc#
=18
4bb
16aa#
8.bb
16ccc#
8.bb
=19
4.fff#
8eee
8ddd#
8ccc#
=20
4bb
16aa#
8.bb
16ddd#
8.bb
=21
4r
16ff##
8.gg#
16bb
8.gg#
=22
4r
16ff#
8.dd#
16cc#
8.a#
=23
4r
16aa#
8.bb
16ddd#
8.bb
=24
4r
16ff##
8.gg#
16bb
8.gg#
=25
4r
16ff#
8.dd#
16cc#
8.a#
=26
4b
4r
16A#
8.B
=27
16d#
8.B
16e
8.c#
16f#
8.d#
=28
4B
4r
16a#
8.b
=29
16dd#
8.b
16ee
8.cc#
16ff#
8.dd#
=30
16gg#
8.ee
16aa
8.ff#
16dd#
8.ee
=31
16gg#
8.ee
16aa
8.ff#
16bb
8.gg#
=32
4ee
4eee
4eee
=33
4.eee
8ddd#
8ccc#
8bb
=34
4aa
4r
16ee#
8.ff#
=35
16gg#
8.ff#
16aa
8.gg#
16bb
8.aa
=36
2ccc#
4a
=37
2aaa
4ddd#
=38
4eee
4r
4b
=39
4ee
4ee
4ee
=40
4dd#
8ff#
8dd#
4a
=41
4g#
8b
8g#
4e
=42
2B
4B#
=43
4c#
4gg#
4gg#
=44
8ff##
8gg#
8aa
8gg#
8ff#
8dd#
=45
8ee
8gg#
8dd#
8b
8cc#
8a#
=46
4b
4r
4b
=47
8ff#
8aa
8ff#
8dd#
8ee
8gg#
=48
8dd#
8ff#
8dd#
8b#
8cc#
8ee
=49
8b
8dd
8b
8g#
8a
8cc#
=50
8cc#
8b
8ee
8dd#
8ff#
8ee
=51
8dd#
8cc#
8b
8a
8g#
8f#
=52
4e
4d#
4b
=53
4aa
4aa
4aa
=54
4gg#
8bb
8gg#
4ee
=55
4aa
4ccc#
4ccc#
=56
2bb
4bb
=57
4aa#
8eee
8ccc#
4aa#
=58
4aa
8ccc#
8aa
4gg#
=59
4ff#
8aa
8ff#
8dd#
8b
=60
4ee
2r
==
*-
